X: 783
T: The Book of Rights.
C:Cronin.
B:O'Neill's Music of Ireland
N:O'Neill's - 783
Z:Transcribed by Stephen Foy (shf@access.digex.net)
Z:abc 1.6
M:6/8
R:Jig
K:D
A,|DED D2 F|Add AFA|Bcd AGF|EDE FDB,|\
DED D2 F|Add AFA|Bcd AGF|EDD D2:|
||A|dfa a2 a|aba afd|gbg faf|ede fdB|\
dfa agf|ede fdA|Bcd AGF|EDD D2:|


